X: 32426
T: Piper's Picnic, The
R: jig
M: 6/8
K: Adorian
|:ABA AGE|cde dBG|ABA AGE|EDE GAB|
ABA AGE|cde dBG|cBA BAG|1 EFG A2G:|2 EFG A2B||
|:cee cee|ceg ecA|Bgf g2d|Bgg dBG|
cBc dcd|ede a2g|edc BAG|1 EFG A2B:|2 EFG A2G||

